X:1
T:St. Louis, 86.86.76.86
T:St. Louis, 86.86.76.86
T:Lewis Henry Redner, 1868
T:Public Domain Courtesy of the Cyber Hymnal™
C:Lewis Henry Redner, 1868
Z:Public Domain
Z:Courtesy of the Cyber Hymnal™
%%score ( 1 2 ) ( 3 4 )
L:1/8
Q:1/4=105
M:4/4
K:F
V:1 treble 
V:2 treble 
V:3 bass 
V:4 bass 
V:1
 [CA]2 | [CA]2 [CA]2 [=B,^G]2 [CA]2 | ([_Ec]2 [DB]2) [B,D]2 [DG]2 | [CF]2 (EF) [CG]2 C2 | %4
 [CA]6 [CA]2 | [CA]2 [FA]2 [^Fd]2 [Fc]2 | [Gc]2 [DB]2 [B,D]2 [DG]2 | [CF]2 (EF) [EA]3 [EG] | %8
 F6 [FA]2 | [FA]2 [FA]2 [EG]2 [DF]2 | [^CE]4 [CE]2 [CE]2 | D2 E2 F2 [DG]2 | [EA]6 [FA]2 | %13
 [CA]2 [CA]2 [=B,^G]2 [CA]2 | [Dc]2 [DB]2 [B,D]2 d2 | [Fc]2 [=B,F]2 [CA]3 [_B,G] | [A,F]6 |] %17
V:2
 x2 | x8 | x8 | x2 C2 x C2 x | x8 | x8 | x8 | x2 C2 x4 | F6 x2 | x8 | x8 | D2 E2 F2 x2 | x8 | x8 | %14
 x6 (DE) | x8 | x6 |] %17
V:3
 F,2 | F,2 F,2 F,2 F,2 | [B,,^F,]2 [B,,G,]2 [B,,G,]2 [B,,B,]2 | [C,A,]2 (G,A,) [C,B,]2 [C,B,]2 | %4
 [F,A,]6 F,2 | F,2 [_E,A,]2 [D,A,]2 [D,D]2 | [G,D]2 [G,D]2 [G,,D]2 [B,,B,]2 | %7
 A,2 [C,A,] [C,C]3 [C,B,] x | [F,A,]6 [F,C]2 | [F,C]2 [F,A,]2 [G,B,]2 [^G,=B,]2 | %10
 [A,^C]4 [A,C]2 [A,,A,]2 | D,2 E,2 F,2 [B,D]2 | [A,^C]6 [F,=C]2 | [F,C]2 [F,A,]2 F,2 F,2 | %14
 [B,,^F,]2 [B,,G,]2 [B,,G,]2 [B,,B,]2 | [C,A,]2 (G,F,) [C,F,]3 [C,E,] | [F,,F,]6 |] %17
V:4
 F,2 | F,2 F,2 F,2 F,2 | x8 | x2 C,2 x4 | x6 F,2 | F,2 x6 | x8 | C,3 ^G, x4 | x8 | x8 | x8 | %11
 D,2 E,2 F,2 x2 | x8 | x8 | x8 | x2 D,2 x4 | x6 |] %17

